build/img/four_benefits/slider/RArrow.svg

<svg width="56" height="56" viewBox="0 0 56 56" fill="none" xmlns="http://www.w3.org/2000/svg">
<rect x="-0.5" y="0.5" width="55" height="55" rx="27.5" transform="matrix(-1 0 0 1 55 0)" fill="#B0CB1F"/>
<rect x="-0.5" y="0.5" width="55" height="55" rx="27.5" transform="matrix(-1 0 0 1 55 0)" stroke="#F2F5D5"/>
<path d="M31.1868 22.8132C30.7377 22.3641 30.7377 21.6359 31.1868 21.1868C31.6359 20.7377 32.3641 20.7377 32.8132 21.1868L38.8132 27.1868C39.2623 27.6359 39.2623 28.3641 38.8132 28.8132L32.8132 34.8132C32.3641 35.2623 31.6359 35.2623 31.1868 34.8132C30.7377 34.3641 30.7377 33.6359 31.1868 33.1868L35.2237 29.15H18.0108C17.3711 29.15 16.8498 28.6367 16.8498 28C16.8498 27.3633 17.3711 26.85 18.0108 26.85H35.2236L31.1868 22.8132Z" fill="white" stroke="white" stroke-width="0.3" stroke-linecap="round" stroke-linejoin="round"/>
</svg>

<svg width="56" height="56" fill="none" xmlns="http://www.w3.org/2000/svg"><rect x="-.5" y=".5" width="55" height="55" rx="27.5" transform="matrix(-1 0 0 1 55 0)" fill="#B0CB1F"/><rect x="-.5" y=".5" width="55" height="55" rx="27.5" transform="matrix(-1 0 0 1 55 0)" stroke="#F2F5D5"/><path d="M31.187 22.813a1.15 1.15 0 0 1 1.626-1.626l6 6c.45.449.45 1.177 0 1.626l-6 6a1.15 1.15 0 0 1-1.626-1.626l4.037-4.037H18.01c-.64 0-1.161-.513-1.161-1.15 0-.637.521-1.15 1.16-1.15h17.214l-4.037-4.037Z" fill="#fff" stroke="#fff" stroke-width=".3" stroke-linecap="round" stroke-linejoin="round"/></svg>
